svg/u1f5c4.svg

<svg viewBox="0 0 128 128" xmlns="http://www.w3.org/2000/svg">
  <g>
    <path d="M14.45,4c-1.91,0-3.46,1.55-3.46,3.46v51.88v9.31v51.88c0,1.91,1.55,3.46,3.46,3.46h99.1 c1.91,0,3.46-1.55,3.46-3.46V68.66v-9.31V7.46c0-1.91-1.55-3.46-3.46-3.46H14.45z" fill="#607D8B"/>
    <path d="M105.71,62.35H22.29c-2.62,0-4.74-2.12-4.74-4.74V14.93c0-2.62,2.12-4.74,4.74-4.74h83.43 c2.62,0,4.74,2.12,4.74,4.74v42.67C110.46,60.23,108.33,62.35,105.71,62.35z" fill="#37474F"/>
    <path d="M105.71,117.81H22.29c-2.62,0-4.74-2.12-4.74-4.74V70.39c0-2.62,2.12-4.74,4.74-4.74h83.43 c2.62,0,4.74,2.12,4.74,4.74v42.67C110.46,115.69,108.33,117.81,105.71,117.81z" fill="#37474F"/>
    <rect height="13.81" fill="#FAFAFA" width="24.21" x="51.9" y="76.33"/>
    <path d="M74.76,78.87c0,0-1.01,2-1.04,5.1c-0.03,2.81,1.47,5.86,1.47,5.86h-22.4c0,0,1.39-2.85,1.41-5.48 c0.02-3.03-1.07-5.48-1.07-5.48H74.76z M76.12,75.72H51.88c-1.38,0-2.5,1.12-2.5,2.5v12.27c0,1.38,1.12,2.5,2.5,2.5h24.25 c1.38,0,2.5-1.12,2.5-2.5V78.21C78.62,76.83,77.5,75.72,76.12,75.72L76.12,75.72z" fill="#263238"/>
    <path d="M75.47,77.43c0,0-1.47,2.29-1.47,5.1c0,2.81,1.47,5.86,1.47,5.86H52.53c0,0,1.41-2.85,1.41-5.48 s-1.41-5.48-1.41-5.48H75.47z M76.12,74.28H51.88c-1.38,0-2.5,1.12-2.5,2.5v12.27c0,1.38,1.12,2.5,2.5,2.5h24.25 c1.38,0,2.5-1.12,2.5-2.5V76.77C78.62,75.4,77.5,74.28,76.12,74.28L76.12,74.28z" fill="#9E9E9E"/>
    <line fill="none" stroke="#C9E3E6" stroke-width="1.5756" stroke-linecap="round" stroke-miterlimit="10" x1="52.32" x2="60.51" y1="75.72" y2="75.72"/>
    <path d="M60.72,75.36" fill="none" stroke="#C9E3E6" stroke-width="1.5756" stroke-linecap="round" stroke-miterlimit="10"/>
    <path d="M71.37,109.18c-0.54,0-13.39,0-13.39,0c-4.37,0-7.92-3.54-7.92-7.92v-0.72c0-1.06,0.84-3.5,1.9-3.5 c3.6,0,26.02,0.1,26.27,0.48C81.59,102.55,77,109.17,71.37,109.18z" fill="#263238"/>
    <path d="M70.51,106.65H57.49c-4.48,0-8.11-3.63-8.11-8.11v-0.48c0-1.09,0.88-1.97,1.97-1.97h25.31 c1.09,0,1.97,0.88,1.97,1.97v0.48C78.62,103.02,74.99,106.65,70.51,106.65z" fill="#607D8B"/>
    <path d="M58.59,99.93c-1.97,0.18-3.95,0.26-5.93,0.23c-0.45-0.01-2-0.2-1.7-1.84 c0.29-1.6,4.5-1.24,6.12-1.25c5.3-0.03,5.92,0.53,5.92,1.18C63,98.93,62.47,99.59,58.59,99.93z" fill="#C9E3E6"/>
    <rect height="13.81" fill="#FAFAFA" width="24.21" x="51.9" y="20.87"/>
    <path d="M74.76,23.41c0,0-1.01,2-1.04,5.1c-0.03,2.81,1.47,5.86,1.47,5.86h-22.4c0,0,1.39-2.85,1.41-5.48 c0.02-3.03-1.07-5.48-1.07-5.48H74.76z M76.12,20.26H51.88c-1.38,0-2.5,1.12-2.5,2.5v12.27c0,1.38,1.12,2.5,2.5,2.5h24.25 c1.38,0,2.5-1.12,2.5-2.5V22.75C78.62,21.37,77.5,20.26,76.12,20.26L76.12,20.26z" fill="#263238"/>
    <path d="M75.47,21.97c0,0-1.47,2.29-1.47,5.1s1.47,5.86,1.47,5.86H52.53c0,0,1.41-2.85,1.41-5.48 s-1.41-5.48-1.41-5.48H75.47z M76.12,18.82H51.88c-1.38,0-2.5,1.12-2.5,2.5v12.27c0,1.38,1.12,2.5,2.5,2.5h24.25 c1.38,0,2.5-1.12,2.5-2.5V21.31C78.62,19.94,77.5,18.82,76.12,18.82L76.12,18.82z" fill="#9E9E9E"/>
    <line fill="none" stroke="#C9E3E6" stroke-width="1.5756" stroke-linecap="round" stroke-miterlimit="10" x1="52.32" x2="60.51" y1="20.26" y2="20.26"/>
    <path d="M60.72,19.9" fill="none" stroke="#C9E3E6" stroke-width="1.5756" stroke-linecap="round" stroke-miterlimit="10"/>
    <path d="M71.37,53.72c-0.54,0-13.39,0-13.39,0c-4.37,0-7.92-3.54-7.92-7.92v-0.72c0-1.06,0.84-3.5,1.9-3.5 c3.6,0,26.02,0.1,26.27,0.48C81.59,47.09,77,53.71,71.37,53.72z" fill="#263238"/>
    <path d="M70.51,51.19H57.49c-4.48,0-8.11-3.63-8.11-8.11v-0.48c0-1.09,0.88-1.97,1.97-1.97h25.31 c1.09,0,1.97,0.88,1.97,1.97v0.48C78.62,47.56,74.99,51.19,70.51,51.19z" fill="#607D8B"/>
    <path d="M58.59,44.47c-1.97,0.18-3.95,0.26-5.93,0.23c-0.45-0.01-2-0.2-1.7-1.84 c0.29-1.6,4.5-1.24,6.12-1.25c5.3-0.03,5.92,0.53,5.92,1.18C63,43.47,62.47,44.13,58.59,44.47z" fill="#C9E3E6"/>
  </g>
</svg>

<svg viewBox="0 0 128 128" xmlns="http://www.w3.org/2000/svg">
  <defs/>
  <path d="M14.45,4 C12.54,4 10.99,5.55 10.99,7.46 L10.99,59.34 L10.99,68.65 L10.99,120.53 C10.99,122.44 12.54,123.99 14.45,123.99 L113.55,123.99 C115.46,123.99 117.01,122.44 117.01,120.53 L117.01,68.66 L117.01,59.35 L117.01,7.46 C117.01,5.55 115.46,4 113.55,4 L14.45,4 Z" fill="#607D8B"/>
  <path d="M105.71,62.35 L22.29,62.35 C19.67,62.35 17.55,60.23 17.55,57.61 L17.55,14.93 C17.55,12.31 19.67,10.19 22.29,10.19 L105.72,10.19 C108.34,10.19 110.46,12.31 110.46,14.93 L110.46,57.6 C110.46,60.23 108.33,62.35 105.71,62.35 Z" fill="#37474F"/>
  <path d="M105.71,117.81 L22.29,117.81 C19.67,117.81 17.55,115.69 17.55,113.07 L17.55,70.39 C17.55,67.77 19.67,65.65 22.29,65.65 L105.72,65.65 C108.34,65.65 110.46,67.77 110.46,70.39 L110.46,113.06 C110.46,115.69 108.33,117.81 105.71,117.81 Z" fill="#37474F"/>
  <path d="M51.9,76.33 L76.11,76.33 L76.11,90.14 L51.9,90.14 L51.9,76.33 Z" fill="#FAFAFA"/>
  <path d="M74.76,78.87 C74.76,78.87 73.75,80.87 73.72,83.97 C73.69,86.78 75.19,89.83 75.19,89.83 L52.79,89.83 C52.79,89.83 54.18,86.98 54.2,84.35 C54.22,81.32 53.13,78.87 53.13,78.87 L74.76,78.87 Z M76.12,75.72 L51.88,75.72 C50.5,75.72 49.38,76.84 49.38,78.22 L49.38,90.49 C49.38,91.87 50.5,92.99 51.88,92.99 L76.13,92.99 C77.51,92.99 78.63,91.87 78.63,90.49 L78.63,78.21 C78.62,76.83 77.5,75.72 76.12,75.72 L76.12,75.72 Z" fill="#263238"/>
  <path d="M75.47,77.43 C75.47,77.43 74,79.72 74,82.53 C74,85.34 75.47,88.39 75.47,88.39 L52.53,88.39 C52.53,88.39 53.94,85.54 53.94,82.91 C53.94,80.28 52.53,77.43 52.53,77.43 L75.47,77.43 Z M76.12,74.28 L51.88,74.28 C50.5,74.28 49.38,75.4 49.38,76.78 L49.38,89.05 C49.38,90.43 50.5,91.55 51.88,91.55 L76.13,91.55 C77.51,91.55 78.63,90.43 78.63,89.05 L78.63,76.77 C78.62,75.4 77.5,74.28 76.12,74.28 L76.12,74.28 Z" fill="#9E9E9E"/>
  <path d="M52.32,74.932 L60.51,74.932 Q61.298,74.932 61.298,75.72 Q61.298,76.508 60.51,76.508 L52.32,76.508 Q51.532,76.508 51.532,75.72 Q51.532,74.932 52.32,74.932 Z" fill="#C9E3E6"/>
  <path d="M71.37,109.18 C70.83,109.18 57.98,109.18 57.98,109.18 C53.61,109.18 50.06,105.64 50.06,101.26 L50.06,100.54 C50.06,99.48 50.9,97.04 51.96,97.04 C55.56,97.04 77.98,97.14 78.23,97.52 C81.59,102.55 77,109.17 71.37,109.18 Z" fill="#263238"/>
  <path d="M70.51,106.65 L57.49,106.65 C53.01,106.65 49.38,103.02 49.38,98.54 L49.38,98.06 C49.38,96.97 50.26,96.09 51.35,96.09 L76.66,96.09 C77.75,96.09 78.63,96.97 78.63,98.06 L78.63,98.54 C78.62,103.02 74.99,106.65 70.51,106.65 Z" fill="#607D8B"/>
  <path d="M58.59,99.93 C56.62,100.11 54.64,100.19 52.66,100.16 C52.21,100.15 50.66,99.96 50.96,98.32 C51.25,96.72 55.46,97.08 57.08,97.07 C62.38,97.04 63,97.6 63,98.25 C63,98.93 62.47,99.59 58.59,99.93 Z" fill="#C9E3E6"/>
  <path d="M51.9,20.87 L76.11,20.87 L76.11,34.68 L51.9,34.68 L51.9,20.87 Z" fill="#FAFAFA"/>
  <path d="M74.76,23.41 C74.76,23.41 73.75,25.41 73.72,28.51 C73.69,31.32 75.19,34.37 75.19,34.37 L52.79,34.37 C52.79,34.37 54.18,31.52 54.2,28.89 C54.22,25.86 53.13,23.41 53.13,23.41 L74.76,23.41 Z M76.12,20.26 L51.88,20.26 C50.5,20.26 49.38,21.38 49.38,22.76 L49.38,35.03 C49.38,36.41 50.5,37.53 51.88,37.53 L76.13,37.53 C77.51,37.53 78.63,36.41 78.63,35.03 L78.63,22.75 C78.62,21.37 77.5,20.26 76.12,20.26 L76.12,20.26 Z" fill="#263238"/>
  <path d="M75.47,21.97 C75.47,21.97 74,24.26 74,27.07 C74,29.88 75.47,32.93 75.47,32.93 L52.53,32.93 C52.53,32.93 53.94,30.08 53.94,27.45 C53.94,24.82 52.53,21.97 52.53,21.97 L75.47,21.97 Z M76.12,18.82 L51.88,18.82 C50.5,18.82 49.38,19.94 49.38,21.32 L49.38,33.59 C49.38,34.97 50.5,36.09 51.88,36.09 L76.13,36.09 C77.51,36.09 78.63,34.97 78.63,33.59 L78.63,21.31 C78.62,19.94 77.5,18.82 76.12,18.82 L76.12,18.82 Z" fill="#9E9E9E"/>
  <path d="M52.32,19.472 L60.51,19.472 Q61.298,19.472 61.298,20.26 Q61.298,21.048 60.51,21.048 L52.32,21.048 Q51.532,21.048 51.532,20.26 Q51.532,19.472 52.32,19.472 Z" fill="#C9E3E6"/>
  <path d="M71.37,53.72 C70.83,53.72 57.98,53.72 57.98,53.72 C53.61,53.72 50.06,50.18 50.06,45.8 L50.06,45.08 C50.06,44.02 50.9,41.58 51.96,41.58 C55.56,41.58 77.98,41.68 78.23,42.06 C81.59,47.09 77,53.71 71.37,53.72 Z" fill="#263238"/>
  <path d="M70.51,51.19 L57.49,51.19 C53.01,51.19 49.38,47.56 49.38,43.08 L49.38,42.6 C49.38,41.51 50.26,40.63 51.35,40.63 L76.66,40.63 C77.75,40.63 78.63,41.51 78.63,42.6 L78.63,43.08 C78.62,47.56 74.99,51.19 70.51,51.19 Z" fill="#607D8B"/>
  <path d="M58.59,44.47 C56.62,44.65 54.64,44.73 52.66,44.7 C52.21,44.69 50.66,44.5 50.96,42.86 C51.25,41.26 55.46,41.62 57.08,41.61 C62.38,41.58 63,42.14 63,42.79 C63,43.47 62.47,44.13 58.59,44.47 Z" fill="#C9E3E6"/>
</svg>
